icons/svg/division-box.svg

﻿<?xml version="1.0" encoding="utf-8"?>
<!DOCTYPE svg PUBLIC "-//W3C//DTD SVG 1.1//EN" "http://www.w3.org/Graphics/SVG/1.1/DTD/svg11.dtd">
<svg xmlns="http://www.w3.org/2000/svg" xmlns:xlink="http://www.w3.org/1999/xlink" version="1.1" baseProfile="full" width="24" height="24" viewBox="0 0 24.00 24.00" enable-background="new 0 0 24.00 24.00" xml:space="preserve">
	<path fill="#000000" fill-opacity="1" stroke-width="0.2" stroke-linejoin="round" d="M 16.9994,12.9981L 16.9994,10.9981L 6.9994,10.9981L 6.9994,12.9981L 16.9994,12.9981 Z M 18.9994,2.99813C 20.1024,2.99813 20.9994,3.89413 20.9994,4.99813L 20.9994,18.9981C 20.9994,20.1021 20.1024,20.9981 18.9994,20.9981L 4.9994,20.9981C 3.8934,20.9981 2.9994,20.1021 2.9994,18.9981L 2.9994,4.99813C 2.9994,3.89413 3.8934,2.99813 4.9994,2.99813L 18.9994,2.99813 Z M 12,7C 11.4477,7 11,7.44772 11,8C 11,8.55229 11.4477,9 12,9C 12.5523,9 13,8.55229 13,8C 13,7.44772 12.5523,7 12,7 Z M 12,15C 11.4477,15 11,15.4477 11,16C 11,16.5523 11.4477,17 12,17C 12.5523,17 13,16.5523 13,16C 13,15.4477 12.5523,15 12,15 Z "/>
</svg>

<svg xmlns="http://www.w3.org/2000/svg" version="1.1" baseProfile="full" width="24" height="24" viewBox="0 0 24.00 24.00" xml:space="preserve"><path fill="#000" fill-opacity="1" stroke-width=".2" stroke-linejoin="round" d="M17 12.998v-2H7v2h10zm2-10c1.102 0 2 .896 2 2v14c0 1.104-.898 2-2 2H5c-1.107 0-2-.896-2-2v-14c0-1.104.893-2 2-2h14zM12 7c-.552 0-1 .448-1 1s.448 1 1 1 1-.448 1-1-.448-1-1-1zm0 8c-.552 0-1 .448-1 1s.448 1 1 1 1-.448 1-1-.448-1-1-1z"/></svg>
